Origami/64x64/apps/somafm.svg

<svg width="64" height="64" version="1" xmlns="http://www.w3.org/2000/svg">
 <path d="m4 56v2c0 1.662 1.338 3 3 3h50c1.662 0 3-1.338 3-3v-2c0 1.662-1.338 3-3 3h-50c-1.662 0-3-1.338-3-3z" style="opacity:.2"/>
 <rect transform="matrix(0,-1,-1,0,0,0)" x="-60" y="-60" width="56" height="56" rx="3" ry="3" style="fill:#4f4f4f"/>
 <path d="m7 4c-1.662 0-3 1.338-3 3v1c0-1.662 1.338-3 3-3h50c1.662 0 3 1.338 3 3v-1c0-1.662-1.338-3-3-3h-50z" style="fill:#ffffff;opacity:.1"/>
 <path d="m43 22v-4h-22v7l22 16v7h-22v-4" style="fill:none;opacity:.2;stroke-linecap:round;stroke-linejoin:round;stroke-width:6;stroke:#000000"/>
 <path d="m43 21v-4h-22v7l22 16v7h-22v-4" style="fill:none;stroke-linecap:round;stroke-linejoin:round;stroke-width:6;stroke:#ff5151"/>
</svg>

<svg xmlns="http://www.w3.org/2000/svg" width="64" height="64" version="1">
 <path style="opacity:0.2" d="m 4,56 0,2 c 0,1.662 1.338,3 3,3 l 50,0 c 1.662,0 3,-1.338 3,-3 l 0,-2 c 0,1.662 -1.338,3 -3,3 L 7,59 C 5.338,59 4,57.662 4,56 Z"/>
 <rect style="fill:#4f4f4f" width="56" height="56" x="-60" y="-60" rx="3" ry="3" transform="matrix(0,-1,-1,0,0,0)"/>
 <path style="opacity:0.1;fill:#ffffff" d="M 7 4 C 5.338 4 4 5.338 4 7 L 4 8 C 4 6.338 5.338 5 7 5 L 57 5 C 58.662 5 60 6.338 60 8 L 60 7 C 60 5.338 58.662 4 57 4 L 7 4 z"/>
 <path style="opacity:0.2;fill:none;stroke:#000000;stroke-width:6;stroke-linecap:round;stroke-linejoin:round" d="m 43,22 0,-4 -22,0 0,7 22,16 0,7 -22,0 0,-4"/>
 <path style="fill:none;stroke:#ff5151;stroke-width:6;stroke-linecap:round;stroke-linejoin:round" d="m 43,21 0,-4 -22,0 0,7 22,16 0,7 -22,0 0,-4"/>
</svg>
